public/icon-svg/github.svg

<svg width="16" height="16" viewBox="0 0 16 16" fill="none" xmlns="http://www.w3.org/2000/svg">
<path d="M7.999 0C3.58201 0 4.61648e-06 3.596 4.61648e-06 8.032C-0.0018 9.71555 0.525519 11.3571 1.50744 12.7246C2.48935 14.0922 3.87621 15.1166 5.472 15.653C5.872 15.727 6.018 15.479 6.018 15.266C6.018 15.075 6.011 14.57 6.007 13.9C3.782 14.385 3.312 12.823 3.312 12.823C2.949 11.895 2.424 11.648 2.424 11.648C1.697 11.15 2.478 11.16 2.478 11.16C3.281 11.217 3.703 11.988 3.703 11.988C4.417 13.215 5.576 12.861 6.032 12.655C6.104 12.136 6.311 11.782 6.54 11.581C4.764 11.378 2.896 10.689 2.896 7.612C2.896 6.735 3.208 6.018 3.72 5.456C3.637 5.253 3.363 4.436 3.798 3.331C3.798 3.331 4.47 3.115 5.998 4.154C6.65075 3.97561 7.32432 3.88482 8.00101 3.884C8.67772 3.88534 9.35126 3.97647 10.004 4.155C11.531 3.116 12.202 3.332 12.202 3.332C12.638 4.438 12.364 5.254 12.282 5.457C12.795 6.019 13.104 6.736 13.104 7.613C13.104 10.698 11.234 11.377 9.452 11.576C9.739 11.824 9.995 12.314 9.995 13.063C9.995 14.137 9.985 15.003 9.985 15.266C9.985 15.481 10.129 15.731 10.535 15.652C12.1292 15.1143 13.5144 14.0895 14.4949 12.7223C15.4755 11.3551 16.0019 9.71448 16 8.032C16 3.596 12.418 0 7.999 0Z" fill="#2DBE94"/>
</svg>

<svg xmlns="http://www.w3.org/2000/svg" viewBox="0 0 16 16"><path d="M7.999 0C3.582 0 0 3.596 0 8.032a8.031 8.031 0 0 0 5.472 7.621c.4.074.546-.174.546-.387 0-.191-.007-.696-.011-1.366-2.225.485-2.695-1.077-2.695-1.077-.363-.928-.888-1.175-.888-1.175-.727-.498.054-.488.054-.488.803.057 1.225.828 1.225.828.714 1.227 1.873.873 2.329.667.072-.519.279-.873.508-1.074-1.776-.203-3.644-.892-3.644-3.969 0-.877.312-1.594.824-2.156-.083-.203-.357-1.02.078-2.125 0 0 .672-.216 2.2.823a7.633 7.633 0 0 1 2.003-.27 7.65 7.65 0 0 1 2.003.271c1.527-1.039 2.198-.823 2.198-.823.436 1.106.162 1.922.08 2.125.513.562.822 1.279.822 2.156 0 3.085-1.87 3.764-3.652 3.963.287.248.543.738.543 1.487 0 1.074-.01 1.94-.01 2.203 0 .215.144.465.55.386A8.032 8.032 0 0 0 16 8.032C16 3.596 12.418 0 7.999 0z"/></svg>
